X: 6
T: Dusty Miller, The
Z: cwboal
S: https://thesession.org/tunes/28#setting30762
R: slip jig
M: 9/8
L: 1/8
K: Gmaj
|B2d d2A BAG|E2G A2B cBA|B2d d2A BAG|D2E G2A BAG|
|B2d d2A BAG|E2G A2B cBA|B2d d2A BAG|D2E G2A BAG||
|B2d e2f g3|a2A A2B cBA|B2d e2f g2a|g2e d2c BAG|
|B2d e2f g3|a2A A2B cBA|B2d e2f g2a|g2e d2c BAG||
